Dominus_Dark_Funeral/22/apps/deepin-draw.svg

<svg xmlns="http://www.w3.org/2000/svg" width="24" height="24"><defs><linearGradient id="b"><stop offset="0"/><stop offset="1" stop-opacity="0"/></linearGradient><linearGradient id="a"><stop offset="0"/><stop offset="1" stop-opacity="0"/></linearGradient></defs><path d="M11.86 1.71c-2.9.03-6.8 1.1-6.75 4.5.08 3.56 4.03 2.28 4.34 3.74l.18-.16c.26-.3.52-.52.8-.83l1.36-1.4c1.5-1.64 1.55-1.74 5.2-4.47a9.82 9.82 0 0 0-4.53-1.38zm8.45 0a62.77 62.77 0 0 0-9.1 8.08l-.44.42-.26.34a62.57 62.57 0 0 0-5.01 6.44 1.46 1.46 0 0 0-1.56.13c-1.04.68-.78 3.14-2.94 3.14.21.84 2.4.81 3.87.45 1.38-.34 1.82-1.56 1.56-2.6l-.23-.42a66.83 66.83 0 0 0 6-5.56l1.17-1.27a74.31 74.31 0 0 0 6.94-9.15zM9.22 4.48h.02c.76 0 1.4.62 1.4 1.39a1.4 1.4 0 1 1-1.42-1.4zm10.02.22v.03a38.45 38.45 0 0 1-4.62 6.31c-.89.88-1.61 1.8-2.24 2.44a118.27 118.27 0 0 1-4.34 4.21c.08 2.03 1.12 3.8 4.47 4.42 5.36 1.04 11.02-2.5 10.45-9.7a12.97 12.97 0 0 0-3.72-7.71z" fill="#e6e6e6"/></svg>

<?xml version="1.0" encoding="UTF-8" standalone="no"?>
<svg
   xmlns:dc="http://purl.org/dc/elements/1.1/"
   xmlns:cc="http://creativecommons.org/ns#"
   xmlns:rdf="http://www.w3.org/1999/02/22-rdf-syntax-ns#"
   xmlns:svg="http://www.w3.org/2000/svg"
   xmlns="http://www.w3.org/2000/svg"
   xmlns:sodipodi="http://sodipodi.sourceforge.net/DTD/sodipodi-0.dtd"
   xmlns:inkscape="http://www.inkscape.org/namespaces/inkscape"
   width="24"
   height="24"
   version="1.1"
   id="svg16"
   sodipodi:docname="deepin-draw.svg"
   inkscape:version="0.92.4 (5da689c313, 2019-01-14)">
  <metadata
     id="metadata20">
    <rdf:RDF>
      <cc:Work
         rdf:about="">
        <dc:format>image/svg+xml</dc:format>
        <dc:type
           rdf:resource="http://purl.org/dc/dcmitype/StillImage" />
        <dc:title></dc:title>
      </cc:Work>
    </rdf:RDF>
  </metadata>
  <sodipodi:namedview
     pagecolor="#ffffff"
     bordercolor="#666666"
     borderopacity="1"
     objecttolerance="10"
     gridtolerance="10"
     guidetolerance="10"
     inkscape:pageopacity="0"
     inkscape:pageshadow="2"
     inkscape:window-width="1142"
     inkscape:window-height="480"
     id="namedview18"
     showgrid="false"
     inkscape:zoom="9.8333333"
     inkscape:cx="1.2711864"
     inkscape:cy="12"
     inkscape:window-x="0"
     inkscape:window-y="25"
     inkscape:window-maximized="0"
     inkscape:current-layer="svg16" />
  <defs
     id="defs12">
    <linearGradient
       id="b">
      <stop
         offset="0"
         id="stop2" />
      <stop
         offset="1"
         stop-opacity="0"
         id="stop4" />
    </linearGradient>
    <linearGradient
       id="a">
      <stop
         offset="0"
         id="stop7" />
      <stop
         offset="1"
         stop-opacity="0"
         id="stop9" />
    </linearGradient>
  </defs>
  <path
     d="m 11.86,1.71 c -2.9,0.03 -6.8,1.1 -6.75,4.5 0.08,3.56 4.03,2.28 4.34,3.74 L 9.63,9.79 c 0.26,-0.3 0.52,-0.52 0.8,-0.83 l 1.36,-1.4 c 1.5,-1.64 1.55,-1.74 5.2,-4.47 A 9.82,9.82 0 0 0 12.46,1.71 Z m 8.45,0 a 62.77,62.77 0 0 0 -9.1,8.08 l -0.44,0.42 -0.26,0.34 A 62.57,62.57 0 0 0 5.5,16.99 1.46,1.46 0 0 0 3.94,17.12 C 2.9,17.8 3.16,20.26 1,20.26 c 0.21,0.84 2.4,0.81 3.87,0.45 1.38,-0.34 1.82,-1.56 1.56,-2.6 L 6.2,17.69 a 66.83,66.83 0 0 0 6,-5.56 l 1.17,-1.27 A 74.31,74.31 0 0 0 20.31,1.71 Z M 9.22,4.48 h 0.02 c 0.76,0 1.4,0.62 1.4,1.39 A 1.4,1.4 0 1 1 9.22,4.47 Z M 19.24,4.7 v 0.03 a 38.45,38.45 0 0 1 -4.62,6.31 c -0.89,0.88 -1.61,1.8 -2.24,2.44 a 118.27,118.27 0 0 1 -4.34,4.21 c 0.08,2.03 1.12,3.8 4.47,4.42 5.36,1.04 11.02,-2.5 10.45,-9.7 A 12.97,12.97 0 0 0 19.24,4.7 Z"
     id="path14"
     inkscape:connector-curvature="0"
     style="fill:#e6e6e6" />
</svg>
